X:538
T:Dennis Murphy's
R:Polka
S:My arrangement from various sources
Z:Transcription, arrangement, chords:Mike Long
M:2/4
L:1/8
K:D
"D"f/g/f/e/ dd/B/|AD FA|"G"GE ee/d/|"A"cB BA|\
"D"f/g/f/e/ dd/B/|AD FA|"G"GE "A"ee/f/|[1 "D"ed d2:|[2 "D"ed dd/B/|]
|:"D"Af f/e/f|"G"Bg g>B|"D"Af f/e/d|"A"e/f/e/d/ BA|\
"D"Af f/e/f|"G"Bg gg/a/|"G"ba "A"gc|[1 "D"ed dd/B/:|[2 "D"ed d2|]
